packages/tokens/icons/demo/size24Px.svg

<svg viewBox="0 0 24 24" fill="none" xmlns="http://www.w3.org/2000/svg" width="1em" height="1em"><path d="M19.5 12H20C20.8284 12 21.5 12.6716 21.5 13.5V20C21.5 20.8284 20.8284 21.5 20 21.5H9C8.17157 21.5 7.5 20.8284 7.5 20L7.5 15.5" stroke="currentColor" stroke-linecap="round"/><path d="M13.5 14.5H18.5M10.5 14.5H11.5M13.5 16.5H18.5M10.5 16.5H11.5M13.5 18.5H18.5M10.5 18.5H11.5" stroke="currentColor" stroke-linecap="round"/><path d="M2.5 4C2.5 3.17157 3.17157 2.5 4 2.5L15 2.5C15.8284 2.5 16.5 3.17157 16.5 4V11C16.5 11.8284 15.8284 12.5 15 12.5H4C3.17157 12.5 2.5 11.8284 2.5 11L2.5 4Z" stroke="currentColor"/><path d="M11.3136 7.07125C11.6373 7.26546 11.6373 7.73455 11.3136 7.92875L9.25725 9.16256C8.92399 9.36251 8.5 9.12246 8.5 8.73381L8.5 6.26619C8.5 5.87754 8.92399 5.63749 9.25725 5.83744L11.3136 7.07125Z" stroke="currentColor" stroke-linecap="round" stroke-linejoin="round"/></svg>

<svg xmlns="http://www.w3.org/2000/svg" fill="none" viewBox="0 0 24 24" width="1em" height="1em"><path stroke="currentColor" stroke-linecap="round" d="M19.5 12h.5a1.5 1.5 0 0 1 1.5 1.5V20a1.5 1.5 0 0 1-1.5 1.5H9A1.5 1.5 0 0 1 7.5 20v-4.5m6-1h5m-8 0h1m2 2h5m-8 0h1m2 2h5m-8 0h1"/><path stroke="currentColor" d="M2.5 4A1.5 1.5 0 0 1 4 2.5h11A1.5 1.5 0 0 1 16.5 4v7a1.5 1.5 0 0 1-1.5 1.5H4A1.5 1.5 0 0 1 2.5 11V4Z"/><path stroke="currentColor" stroke-linecap="round" stroke-linejoin="round" d="M11.314 7.071a.5.5 0 0 1 0 .858L9.257 9.163a.5.5 0 0 1-.757-.43V6.267a.5.5 0 0 1 .757-.429l2.057 1.234Z"/></svg>
